svg/system/refresh_2_fill.svg

<?xml version="1.0" encoding="UTF-8"?>
<svg width="24px" height="24px" viewBox="0 0 24 24" version="1.1" xmlns="http://www.w3.org/2000/svg" xmlns:xlink="http://www.w3.org/1999/xlink">
    <title>refresh_2_fill</title>
    <g id="页面-1" stroke="none" stroke-width="1" fill="none" fill-rule="evenodd">
        <g id="System" transform="translate(-1056.000000, -48.000000)" fill-rule="nonzero">
            <g id="refresh_2_fill" transform="translate(1056.000000, 48.000000)">
                 <path d="M24,0 L24,24 L0,24 L0,0 L24,0 Z M12.5934901,23.257841 L12.5819402,23.2595131 L12.5108777,23.2950439 L12.4918791,23.2987469 L12.4918791,23.2987469 L12.4767152,23.2950439 L12.4056548,23.2595131 C12.3958229,23.2563662 12.3870493,23.2590235 12.3821421,23.2649074 L12.3780323,23.275831 L12.360941,23.7031097 L12.3658947,23.7234994 L12.3769048,23.7357139 L12.4804777,23.8096931 L12.4953491,23.8136134 L12.4953491,23.8136134 L12.5071152,23.8096931 L12.6106902,23.7357139 L12.6232938,23.7196733 L12.6232938,23.7196733 L12.6266527,23.7031097 L12.609561,23.275831 C12.6075724,23.2657013 12.6010112,23.2592993 12.5934901,23.257841 L12.5934901,23.257841 Z M12.8583906,23.1452862 L12.8445485,23.1473072 L12.6598443,23.2396597 L12.6498822,23.2499052 L12.6498822,23.2499052 L12.6471943,23.2611114 L12.6650943,23.6906389 L12.6699349,23.7034178 L12.6699349,23.7034178 L12.678386,23.7104931 L12.8793402,23.8032389 C12.8914285,23.8068999 12.9022333,23.8029875 12.9078286,23.7952264 L12.9118235,23.7811639 L12.8776777,23.1665331 C12.8752882,23.1545897 12.8674102,23.1470016 12.8583906,23.1452862 L12.8583906,23.1452862 Z M12.1430473,23.1473072 C12.1332178,23.1423925 12.1221763,23.1452606 12.1156365,23.1525954 L12.1099173,23.1665331 L12.0757714,23.7811639 C12.0751323,23.7926639 12.0828099,23.8018602 12.0926481,23.8045676 L12.108256,23.8032389 L12.3092106,23.7104931 L12.3186497,23.7024347 L12.3186497,23.7024347 L12.3225043,23.6906389 L12.340401,23.2611114 L12.337245,23.2485176 L12.337245,23.2485176 L12.3277531,23.2396597 L12.1430473,23.1473072 Z" id="MingCute" fill-rule="nonzero"></path>
                <path d="M1.49775579,12.0822 C1.48857188,10.8151286 2.84466573,10.095458 3.87669008,10.6758264 L3.98994,10.7457 L6.66778,12.55 C8.09185243,13.5094486 7.20577883,15.6955059 5.56894709,15.4646139 L5.43084,15.4397 L5.32236,15.4159 C6.25566,17.2388 7.92713,18.6735 10.0587,19.2447 C13.4095,20.1425 16.8422,18.6227 18.4971,15.7511 C18.9107,15.0333 19.8279,14.7868 20.5457,15.2004 C21.2634,15.6141 21.51,16.5312 21.0963,17.249 C18.7802,21.2682 13.9782,23.4007 9.2822,22.1425 C5.0775,21.0158 2.15918,17.4918 1.59671,13.4406 C1.53464,12.9935 1.5012,12.5399 1.49775579,12.0822 Z M2.90375,6.75109 C5.22,2.73217 10.0218,0.599762 14.7177,1.85801 C18.9224,2.98466 21.8407,6.50864 22.4032,10.5599 C22.4653,11.007 22.4987,11.4606 22.5020958,11.9182 C22.5113553,13.1852714 21.155227,13.904942 20.1232449,13.3246632 L20.01,13.2548 L17.332,11.4504 C15.9079568,10.4909514 16.7938986,8.30499822 18.4306956,8.5357485 L18.5688,8.56065 L18.6775,8.58449 C17.7442,6.76159 16.0727,5.32692 13.9412,4.75579 C10.5905,3.85797 7.15788,5.37769 5.50296,8.24911 C5.08929,8.96687 4.17209,9.21338 3.45434,8.79971 C2.73659,8.38604 2.49008,7.46884 2.90375,6.75109 Z" id="形状" fill="#09244B"></path>
            </g>
        </g>
    </g>
</svg>

<svg xmlns="http://www.w3.org/2000/svg" width="24" height="24"><g fill="none" fill-rule="nonzero"><path d="M24 0v24H0V0h24ZM12.593 23.258l-.011.002-.071.035-.02.004-.014-.004-.071-.035c-.01-.004-.019-.001-.024.005l-.004.01-.017.428.005.02.01.013.104.074.015.004.012-.004.104-.074.012-.016.004-.017-.017-.427c-.002-.01-.009-.017-.017-.018Zm.265-.113-.013.002-.185.093-.01.01-.003.011.018.43.005.012.008.007.201.093c.012.004.023 0 .029-.008l.004-.014-.034-.614c-.003-.012-.01-.02-.02-.022Zm-.715.002a.023.023 0 0 0-.027.006l-.006.014-.034.614c0 .012.007.02.017.024l.015-.002.201-.093.01-.008.004-.011.017-.43-.003-.012-.01-.01-.184-.092Z"/><path fill="#09244B" d="M1.498 12.082c-.01-1.267 1.347-1.987 2.379-1.406l.113.07 2.678 1.804c1.424.96.538 3.146-1.1 2.915l-.137-.025-.109-.024a7.504 7.504 0 0 0 13.175.335 1.5 1.5 0 1 1 2.6 1.498c-2.317 4.02-7.119 6.152-11.815 4.893a10.503 10.503 0 0 1-7.784-10.06Zm1.406-5.33C5.22 2.731 10.022.6 14.718 1.857a10.503 10.503 0 0 1 7.784 10.06c.01 1.267-1.347 1.987-2.379 1.407l-.113-.07-2.678-1.805c-1.424-.959-.538-3.145 1.099-2.914l.138.025.108.023A7.504 7.504 0 0 0 5.502 8.25a1.5 1.5 0 1 1-2.598-1.498Z"/></g></svg>
